icons/solid/check.svg

<svg width="24" height="24" viewBox="0 0 24 24" fill="none" xmlns="http://www.w3.org/2000/svg">
<path fill-rule="evenodd" clip-rule="evenodd" d="M5 1C2.79086 1 1 2.79086 1 5V19C1 21.2091 2.79086 23 5 23H19C21.2091 23 23 21.2091 23 19V5C23 2.79086 21.2091 1 19 1H5ZM19.7071 7.70711C20.0976 7.31658 20.0976 6.68342 19.7071 6.29289C19.3166 5.90237 18.6834 5.90237 18.2929 6.29289L9 15.5858L5.70711 12.2929C5.31658 11.9024 4.68342 11.9024 4.29289 12.2929C3.90237 12.6834 3.90237 13.3166 4.29289 13.7071L8.29289 17.7071C8.68342 18.0976 9.31658 18.0976 9.70711 17.7071L19.7071 7.70711Z" fill="currentColor"/>
</svg>

<svg width="24" height="24" fill="none" xmlns="http://www.w3.org/2000/svg"><path fill-rule="evenodd" clip-rule="evenodd" d="M5 1a4 4 0 00-4 4v14a4 4 0 004 4h14a4 4 0 004-4V5a4 4 0 00-4-4H5zm14.707 6.707a1 1 0 00-1.414-1.414L9 15.586l-3.293-3.293a1 1 0 00-1.414 1.414l4 4a1 1 0 001.414 0l10-10z" fill="currentColor"/></svg>
